packages/icons/svg/Universe_Floor_24px.svg

<svg xmlns="http://www.w3.org/2000/svg" viewBox="0 0 24 24"><path d="M17 13h-6V7a1 1 0 00-1-1H3a1 1 0 00-1 1v14a1 1 0 001 1h14a1 1 0 001-1v-7a1 1 0 00-1-1zM4 8h5v5H4zm0 7h5v5H4zm12 5h-5v-5h5z"/><path d="M21 2h-7a1 1 0 00-1 1v7a1 1 0 001 1h7a1 1 0 001-1V3a1 1 0 00-1-1zm-1 7h-5V4h5z"/></svg>

<svg xmlns="http://www.w3.org/2000/svg" viewBox="0 0 24 24"><defs></defs><g id="Calque_5" ><path  d="M17,13H11V7a1,1,0,0,0-1-1H3A1,1,0,0,0,2,7V21a1,1,0,0,0,1,1H17a1,1,0,0,0,1-1V14A1,1,0,0,0,17,13ZM4,8H9v5H4Zm0,7H9v5H4Zm12,5H11V15h5Z"/><path  d="M21,2H14a1,1,0,0,0-1,1v7a1,1,0,0,0,1,1h7a1,1,0,0,0,1-1V3A1,1,0,0,0,21,2ZM20,9H15V4h5Z"/></g></svg>
